X: 7
T: SLIP JIGS: Snowy Path Set
T: Snowy Path
C: C: Mark Kelly / Trad. / Trad.; S: Altan // Various
C: Set Leaders: Olya, Tanya, Anton
Z: Anton Zille ed.; Shawn Cassady / Josh Kane / Netallica at The Session
N: https://thesession.org/members/26966/sets/76538
R: Slip Jig
M: 9/8
L: 1/8
Q: 3/8=114
K: Dmaj
F2A B2F A2F|G2B d2e dBG|F2A B2F A2F|E2D E2F GFE|
F2A B2F A2F|G2B d2e dBG|F2A B2F A2F|E2D E2F GAB||
c3 c2e d2c|B2G B2c d2e|f3 f2e d2B|A2G F2G A2B|
c3 c2e d2c|B2G B2c d2e|d2A B2F A2F|E2D E2F GFE||
T: Fig For a Kiss
K: Edor
G2B E2B BAG|F2A D2A AGF|G2B E2B BAG|B/c/dB AGF DEF|
G2B E2B BAG|F2A D2A AGF|G2B E2B BAG|B/c/dB AGF E3||
g2e g2e edB|f2d dcd fed|g2e g2e edB|dBG GBd e2f|
g2e g2e edB|f2d dcd fed|gfe fed edA|B/c/dB AGF E2F||
T: Foxhunter's
K: Dmaj
|:FDF FDF G2E|FDF FED E2D|FDF FDF G2B|AFD DEF E2D:|
|:B3 BAG FGA|B2E E2F G2B|ABc dcB ABc|d2D DEF E2D:|
|:fdf fdf g2e|fdf fed e2d|fdf fdf g2b|afd def e2d:|
|:gfe d=cB AGA|B2 E E2 F G2 B|ABc dcB ABc|d2 D DEF E2 D:|